X:1
T:Title
%%score { ( 1 3 5 ) | ( 2 4 ) }
L:1/8
M:4/4
K:G
V:1 treble nm="Grand Piano"
V:3 treble 
V:5 treble 
V:2 treble 
V:4 treble 
V:1
 z4 z2[Q:1/4=100] G>A | B3 B c2 F2 | A2 G4 B>c | d3 B B2 G2 |[M:3/4] [FA]6 |[M:1/4] G>A | %6
[M:4/4] B3 B A2 G2 | [EG]2 [CE]4 [Ec]>[EA] | F3 D [GB]2 [FA]2 |[M:3/4] G6 |[M:12/8] z3 d3- d6 | %11
 z3 [Fc]3- [Fc]6 | [FA][GB][Ac] B3 Bcd e3 | z3 A6- A2- A/ z/ |[M:9/8] D2 D G2 F G2 A |[M:3/8] B3 | %16
 G2 G |[M:6/4] B2 A B2 c d3 [Ge][Gd][Ec] | [DB]3 [Fd][Ec][FA] G3 F2 F |[M:9/8] G8- G |] %20
V:2
 z4 z2 [G,B,D]>[G,CD] | [G,DG]3 [G,DG] [G,EG]2 [G,CD]2 | [G,CD]2 [G,B,D]4 [G,DG]>[G,CG] | %3
 [G,B,G]3 [G,DG] [G,DG]2[K:bass] [E,^C]2 |[M:3/4] D4 z2 |[M:1/4][K:treble] [G,B,D]>[G,B,D] | %6
[M:4/4] [G,DG]3 [G,DG] [G,CD]2 [G,B,=F]2 | [C,C]2 [C,G,]4 [C,G,]>[C,C] | %8
 [D,A,D]3 [D,F,] [D,D]2 [D,C]2 |[M:3/4][K:treble] [G,B,D]6 | %10
[M:12/8] [G,DG][G,DG][G,CG] G3- [G,G-][G,G-][G,G-] [G,G]3 | %11
 [G,DG]2 [G,B,G][K:bass] [D,A,]2 D, D,2 D, D,3 | %12
 [D,D][D,D][D,D][K:treble] [G,DG]3 [G,DG][G,CG][G,B,G] [G,CG]3 | %13
 [G,B,G]2 [G,DG][K:bass] [D,D]3 [E,^C]2 E, [D,D]3 | %14
[M:9/8] [D,F,]2 [D,^C][K:treble] [G,B,D]2 [G,A,D] [G,B,D]2 [G,=CG] |[M:3/8] [G,DG]3 | %16
 [G,B,D]2 [G,B,D] |[M:6/4] [G,DG]2 [G,CG] [G,DG]2 [G,CG] [G,B,G]3[K:bass] [C,G,][C,G,][C,G,] | %18
 [D,G,]3 [D,A,][D,A,][D,C] [D,B,D]3 [D,A,D]2 [D,CD] |[M:9/8] .[G,B,]3 z3 z3 |] %20
V:3
 x8 | x8 | x8 | x8 |[M:3/4] z2 z2 C2 |[M:1/4] x2 |[M:4/4] x8 | x8 | x8 |[M:3/4] x6 | %10
[M:12/8] BBc z3 B,B,B, B,3 | B2 d z2 A, A,2 A, A,3 | x12 | d2 B F3 z2 ^C F3 |[M:9/8] x9 | %15
[M:3/8] x3 | x3 |[M:6/4] x12 | x12 |[M:9/8] z2 B, B,2 B, B,3 |] %20
V:4
 x8 | x8 | x8 | x6[K:bass] x2 |[M:3/4] D,6 |[M:1/4][K:treble] x2 |[M:4/4] x8 | x8 | x8 | %9
[M:3/4][K:treble] x6 |[M:12/8] z3 [G,B,]3 z6 | x3[K:bass] x9 | x3[K:treble] x9 | x3[K:bass] x9 | %14
[M:9/8] x3[K:treble] x6 |[M:3/8] x3 | x3 |[M:6/4] x9[K:bass] x3 | x12 | %19
[M:9/8] D2- [G,D-] [G,D-]2 [B,,D-] [G,,D]3 |] %20
V:5
 x8 | x8 | x8 | x8 |[M:3/4] x6 |[M:1/4] x2 |[M:4/4] x8 | x8 | x8 |[M:3/4] x6 |[M:12/8] x12 | x12 | %12
 x12 | z6 G3 z3 |[M:9/8] x9 |[M:3/8] x3 | x3 |[M:6/4] x12 | x12 |[M:9/8] x9 |] %20

